X:1
T:Janet Laskey's Reel 
C:Gordon Fisch
M:4/4
L:1/8
R:reel
K:D
| Dd /c/B/A efd2 | G2 /G/A/B A2 /A/F/E | Dd /c/B/A efd2 | GB /A/G/F E2 FE |
| Dd /c/B/A efd2 | G2 /G/A/B A2 /A/F/E | Dd /c/B/A efd2 | GB /A/G/F E2 2E |
| G B/B/d/d/B/B/ gd B/B/d/d/ | Acdc Acdc | G B/B/d/d/B/B/ gd B/B/d/d/  | Acdc a2a2 |
| G B/B/d/d/B/B/ gd B/B/d/d/ | Acdc Acdc | G B/B/d/d/B/B/ gd B/B/d/d/  | Aa e/d/c/A/ A2FE |
